X: 305647
M: 2/4
L: 1/16
K: D
dfed c2d2 | ABcA dAFA | dfed c2d2 | ABcA d4 |\
dfed c2d2 | ABcA dAFA | dfed c2d2 | ABcA d4 H|]
d2e2=f2e2 | g2=f2 e2dc | d2e2 =f2e2 | g2=f2 e2dc |\
dfed c2d2 | ABcA dAFA | dfed c2d2 | ABcA d4 :|
d2e2=f2e2 | g2=f2 e2dc | d2e2 =f2e2 | g2=f2 e2dc |\
dfed c2d2 | ABcA dAFA | dfed c2d2 | ABcA "^D.C."d4 :|


